X:1
T:Der Abendhimmel
T:Anton Bruckner (1824-1896) Edited by Alexander Reuter
T:Joseph Christian von Zedlitz
T:Der Abendhimmel
T:Copyright © 2016 by CPDL This edition can be fully distributed, duplicated, performed, and recorded 
T:2. Fassung WAB 56
T:Copyright © 2016 by CPDL This edition can be fully distributed, duplicated, performed, and recorded 
T:Copyright © 2016 by CPDL This edition can be fully distributed, duplicated, performed, and recorded 
T:Copyright © 2016 by CPDL This edition can be fully distributed, duplicated, performed, and recorded 
T:Copyright © 2016 by CPDL This edition can be fully distributed, duplicated, performed, and recorded 
C:Anton Bruckner
C:(1824-1896)
C:Edited by Alexander Reuter
Z:Joseph Christian von Zedlitz
Z:Copyright © 2016 by CPDL
Z:This edition can be fully distributed, duplicated, performed, and recorded
%%score [ 1 2 3 4 ]
L:1/8
M:4/4
K:F
V:1 treble-8 transpose=-12 nm="Tenor I" snm="T."
V:2 treble-8 transpose=-12 nm="Tenor II" snm="T."
V:3 bass nm="Bass I" snm="B."
V:4 bass nm="Bass II" snm="B."
V:1
!p!"^Feierlich ruhig" C2 |!<(! F3 F A2!<)! A2 |!>(! _d4!>)! c2!pp! d2 | _d3 d d2 d2 | c4 z4 | %5
w: Wenn|ich an dei- ner|Sei- te im|A- bend- dun- kel|geh',|
 z2 z!mf! g f"^cresc."=eed |!f! !>!d2 !>!^c2 z2!ff! e2 | !>!f4 !>!_a4 | !>!_a>g g2 z4 | %9
w: den Mond und sein Ge-|lei- te, die|tau- send|Ster- ne seh',|
 z2"^cresc."!p! d2 d2 d2 |"^dim." d3!>(! d d2!>)! z!mf! d | _e2"^cresc." ee f2 f2 | %12
w: die tau- send|Ster- ne seh', dann|möcht' ich den Mond um-|
 _g4 g2!pp! _d2 | _e2 _gg e2 g2 | _e4 z2!ff! _c2 | !>!_a2 =g=e !>!_d2 !>!B2 | G2 E2 z4 | %17
w: fan- gen, und|drü- cken an mei- ne|Brust, die|Ster- ne her- un- ter|lan- gen,|
 z2!p! f2 e2 d2 | (c2 a2 g2 f2 | e2 b2 a2) g2 |"^dim." ^f6!pp! g2 | =f4 e2 d2 | c4 z2!mf! d2 | %23
w: in vol- ler,|sel'- * * *|* * * ger|Lust, in|sel'- * ger|Lust, mit|
 _e2 ee f2 f"^f sf"f | _g4 g2!pp! _d2 | _e2 _gg e2 g2 | _e4 z2!ff! _c2 | !>!_a3 g !>!g2 !>!g!>!g | %28
w: ih- nen die Lo- cken dir|schmü- cken, und|schmü- cken die schö- ne|Brust, ich|möcht' dich schmü- cken und|
 !>!g2 !>!_a2 z4 | z2!p! f2"^cresc." e2 dd | (c2 a2 g2 f2 | e2 b2 a2) g2 |"^dim." ^f6!pp! g2 | %33
w: drü- cken,|und ster- ben vor|Wonn' _ _ _|_ _ _ und|Lust, vor|
 =f6 e2 | f6 z2 | z2!pp! f2 e2 _ee | (d2"^dim." _d2 c2) B2 | A8- | A6 z2 |] %39
w: Wonn' und|Lust,|und ster- ben vor|Wonn' _ _ und|Lust!|_|
V:2
!p! C2 |!<(! F3 F A2!<)! A2 |!>(! _d4!>)! c2!pp! d2 | _d3 d d2 d2 | c4 z4 | %5
w: Wenn|ich an dei- ner|Sei- te im|A- bend- dun- kel|geh',|
 z2 z!mf! c d"^cresc."GG^G |!f! !>!A2 !>!A2 z2!ff! ^c2 | !>!=c4 !>!_e4 | !>!_e>d d2 z4 | %9
w: den Mond und sein Ge-|lei- te, die|tau- send|Ster- ne seh',|
 z2"^cresc."!p! c2 c2 c2 |"^dim." c3!>(! =B B2!>)! z!mf! d | _e2"^cresc." ee _A2 _d2 | %12
w: die tau- send|Ster- ne seh', dann|möcht' ich den Mond um-|
 _e4 _d2!pp! d2 | _c2 _dd c2 d2 | _c4 z2!ff! c2 | !>!=e2 =e_d !>!d2 !>!B2 | G2 E2 z4 | %17
w: fan- gen, und|drü- cken an mei- ne|Brust, die|Ster- ne her- un- ter|lan- gen,|
 z2!p! c2 c2 G2 | (G2 f2 d2 c2- | c2 e4) e2 |"^dim." d4 z4 | z2!pp! G2 G2 F2 | E4 z2!mf! d2 | %23
w: in vol- ler,|sel'- * * *|* * ger|Lust,|in sel'- ger|Lust, mit|
 _e2 ee _A2 _d"^f sf"d | _e4 _d2!pp! d2 | _c2 _dd c2 d2 | _c4 z2!ff! c2 | !>!e3 e !>!e2 !>!e!>!e | %28
w: ih- nen die Lo- cken dir|schmü- cken, und|schmü- cken die schö- ne|Brust, ich|möcht' dich schmü- cken und|
 !>!e2 !>!f2 z4 | z2!p! c2"^cresc." c2 GG | (G2 f2 d2 c2- | c2 e4) e2 |"^dim." d4 z4 | %33
w: drü- cken,|und ster- ben vor|Wonn' _ _ _|_ _ und|Lust,|
 z2!pp! G2 G2 C2 | C6 z2 | z2!pp! d2 ^c2 cc |"^dim." (B4 F2) F2 | F8- | F6 z2 |] %39
w: vor Wonn' und|Lust,|und ster- ben vor|Wonn' _ und|Lust!|_|
V:3
!p! C,2 |!<(! F,3 F, A,2!<)! A,2 |!>(! _D4!>)! C2!pp! C2 | _C3 B, A,2 _A,2 | =A,4 z4 | %5
w: Wenn|ich an dei- ner|Sei- te im|A- bend- dun- kel|geh',|
 z2 z!mf! C G,"^cresc."G,F,F, |!f! !>!F,2 !>!E,2 z2!ff! A,2 | !>!=A,4 !>!C4 | !>!C>=B, B,2 z4 | %9
w: den Mond und sein Ge-|lei- te, die|tau- send|Ster- ne seh',|
 z2"^cresc."!p! D,2 D,2 _A,2 |"^dim." G,3!>(! G, G,2!>)! z!mf! D, | _E,2"^cresc." E,E, _A,2 A,2 | %12
w: die tau- send|Ster- ne seh', dann|möcht' ich den Mond um-|
 _C4 B,2!pp! B,2 | _G,2 B,B, G,2 B,2 | _G,4 z2!ff! _C2 | !>!_D2 DB, !>!D2 !>!B,2 | G,2 E,2 z4 | %17
w: fan- gen, und|drü- cken an mei- ne|Brust, die|Ster- ne her- un- ter|lan- gen,|
 z2!p! A,2 G,2 F,2 | (E,2 C2 B,2 A,2 | G,2 D2 C2) B,2 |"^dim." A,4!pp! _B,4 | _B,6 _A,2 | %22
w: in vol- ler,|sel'- * * *|* * * ger|Lust, in|sel'- ger|
 G,4 z2!mf! D,2 | _E,2 E,E, _A,2 A,"^f sf"A, | _C4 B,2!pp! B,2 | _G,2 B,B, G,2 B,2 | %26
w: Lust, mit|ih- nen die Lo- cken dir|schmü- cken, und|schmü- cken die schö- ne|
 _G,4 z2!ff! _C2 | !>!_D3 D !>!D2 !>!D!>!D | !>!_D2 !>!D2 z4 | z2!p! A,2"^cresc." G,2 F,F, | %30
w: Brust, ich|möcht' dich schmü- cken und|drü- cken,|und ster- ben vor|
 (E,2 C2 B,2 A,2 | G,2 D2 C2) B,2 |"^dim." A,4!pp! B,4 | B,6 B,2 | A,6 z2 | z4 z2!pp! F,2 | %36
w: Wonn' _ _ _|_ _ _ und|Lust, vor|Wonn' und|Lust,|und|
 F,2"^dim." E,E, _E,2 D,2 | C,3 D, C,2 =B,,2 | C,6 z2 |] %39
w: ster- ben vor Wonn' und|Lust, vor Wonn' und|Lust!|
V:4
 z2 | z8 | z4 z2!pp! F,,2 | F,,3 F,, F,,2 F,,2 | F,,3 G,, A,,2 D,2 | %5
w: ||Wenn|ich im A- bend-|dun- kel geh', den|
!mf! G,,3 A,,"^cresc." B,,2 B,,2 |!f! !>!A,,2 !>!A,,2 z2!ff! A,2 | !>!F,4 !>!^F,4 | %8
w: Mond und sein Ge-|lei- te, die|tau- send|
 !>!G,>G, G,2 z2!p! G,,2 | ^F,,4 F,,4 |"^dim." G,,3!>(! G,, G,,2!>)! z!mf! D, | %11
w: Ster- ne seh', die|tau- send|Ster- ne seh', dann|
 _E,2"^cresc." E,E, _D,2 D,2 | _C,4 _G,,2!pp! G,,2 | _C,2 _G,,G,, C,2 G,,2 | _C,4 z2!ff! _C2 | %15
w: möcht' ich den Mond um-|fan- gen, und|drü- cken an mei- ne|Brust, die|
 !>!B,2 B,=G, !>!_D2 !>!B,2 | G,2 E,2 z2!p! C,2 | C,8- | C,4 C,4 | C,6 ^C,2 |"^dim." D,4!pp! _D,4 | %21
w: Ster- ne her- un- ter|lan- gen, in|vol-|* ler,|sel- ger|Lust, in|
 C,6 C,2 | C,4 z2!mf! D,2 | _E,2 E,E, _D,2 D,"^f sf"D, | _C,4 _G,,2!pp! G,,2 | %25
w: sel'- ger|Lust, mit|ih- nen die Lo- cken dir|schmü- cken, und|
 _C,2 _G,,G,, C,2 G,,2 | _C,4 z2!ff! _C2 | !>!B,3 B, !>!B,2 !>!B,!>!B, | %28
w: schmü- cken die schö- ne|Brust, ich|möcht' dich schmü- cken und|
 !>!=B,2 !>!B,2 z2!p! =B,,2 | C,4 C,2 C,2 | C,8- | C,6 ^C,2 |"^dim." D,4!pp! _D,4 | C,4 C,4 | %34
w: drü- cken, und|ster- ben vor|Wonn'|_ und|Lust, vor|Wonn' und|
 F,,6!pp! F,,2 | F,,4 F,,2 F,,2 |"^dim." F,,6 F,,2 | F,,8- | F,,6 z2 |] %39
w: Lust, und|ster- ben vor|Wonn' und|Lust!|_|

